X:1
T:Title
%%score { ( 1 3 ) | ( 2 4 ) }
L:1/8
Q:1/4=100
M:6/8
K:Ab
V:1 treble nm="Grand Piano"
V:3 treble 
V:2 bass 
V:4 bass 
V:1
 [Ec]3 [Ec][=D_c][E=c] | [CA]3 [A,C]2 [B,D] | [CE]3[K:bass] z3[K:treble] | [CE]6 | %4
w: Mrs.~C.~H.~Morris * * *||||
 [Ec]3 [Ec][=D_c][E=c] | [CA]3 [CE]2 c | d3 d2 c | [GB]6 | e3 e=de | c3 A2 E | F3 [FA]2 [Fd] | %11
w: |||||||
 [Ec]6 | c3 cBA | B3 c2 B | [CA]6 | [CE]2 [CE] [CF][CE][A,C] | [CE]3 [EA]2 B | c3 z3 | c6 | %19
w: ||||||||
 [FA]2 [FA] [FB][FA][DF] | [CE]3 [CA]2 [Ec] | c3 z3 | B6 | [CA][CA][CA] [EG]2 [G,DF] | %24
w: |||||
 [A,CE]3 [E,A,C]3 | [CE][CE][CE][K:treble] [DE]2 [EA] | F6 | E2 e ec[E_GA] | [DFA]3 [Fd]2 [FB] | %29
w: |||||
 A3 z3 | [CEA]6 |] %31
w: ||
V:2
 [A,,A,]3 [A,,A,][A,,A,][A,,A,] | [A,,E,]3 [A,,E,]2 [A,,E,] | .[A,,A,]3 [E,G,D]2 [E,G,D] | %3
 [A,,A,]6 | [A,,A,]3 [A,,A,][A,,A,][A,,A,] | [A,,E,]3 [A,,A,]2 [A,E] | [G,B,E]3 [G,B,E]2 [A,CE] | %7
 [E,E]6 | [A,CA]3 [A,CA][A,_CA][A,=CA] | [A,EA]3[K:bass] [A,CE]2 [A,C] | [D,A,D]3 [D,D]2 [D,A,] | %11
 [A,,A,]6 | [E,A,E]3 [E,A,E][E,A,D][E,A,C] | [E,G,D]3 [E,G,E]2 [E,G,D] | [A,,E,A,]6 | %15
 [A,,A,]2 [A,,A,] [A,,A,][A,,A,][A,,E,] | [A,,A,]3 [C,A,]2 [E,G,E] | .[A,E]3 [A,E]2 [A,C] | %18
 [A,E]6 | [D,D]2 [D,D] [D,D][D,D][D,A,] | [A,,A,]3 [A,,A,]2 [A,,A,] | [B,,A,]3 [B,,F,]2 [B,,F,] | %22
 E3 z3 | z3 .E,3 | A,,3 A,,3 | [A,,A,][A,,A,][A,,A,] [B,,G,]2 [C,A,] | [D,A,D]6 | %27
 [A,C]2 [A,CE] [A,CE][A,EA][K:bass]C, | D,3 [D,A,]2 [D,D] | [CE]_C=C E,2 E, | A,,6 |] %31
V:3
 x6 | x6 | z2[K:bass] C, E2[K:treble] F | x6 | x6 | x6 | x6 | x6 | x6 | x6 | x6 | x6 | x6 | x6 | %14
 x6 | x6 | x6 | z AF c2 c | x6 | x6 | x6 | =DAF [DB]2 [DA] | z3 .D3 | x6 | x6 | x3[K:treble] x3 | %26
 x6 | x6 | x6 | z =DE [EAc]2 [_DGB] | x6 |] %31
V:4
 x6 | x6 | x6 | x6 | x6 | x6 | x6 | x6 | x6 | x3[K:bass] x3 | x6 | x6 | x6 | x6 | x6 | x6 | x6 | %17
 x6 | x6 | x6 | x6 | x6 | [E,G,]6 | [A,,E,][A,,E,][A,,E,] A,,-[A,,F,]A,, | x6 | x6 | x6 | %27
 x5[K:bass] x | x6 | E,3 z3 | x6 |] %31

